images_elementary_svg/cmd/hu/sc_italic.svg

<svg viewBox="0 0 16 16" xmlns="http://www.w3.org/2000/svg" xmlns:xlink="http://www.w3.org/1999/xlink"><radialGradient id="a" cx="9" cy="3.783174" gradientTransform="matrix(-2.183201 -.15594313 .2735958 -3.8303361 24.679608 16.394315)" gradientUnits="userSpaceOnUse" r="3.655032"><stop offset="0" stop-color="#737373"/><stop offset=".262" stop-color="#636363"/><stop offset=".705" stop-color="#4b4b4b"/><stop offset="1" stop-color="#3f3f3f"/></radialGradient>

/&amp;amp;gt;<path d="m13.354155 7.8754973q-.329042 1.645209-1.004912 2.8902317-.675869 1.23613-1.654102 2.072074-.9693391.827051-2.2321481 1.245023-1.262809.417972-2.7568366.417972h-3.2548458l2.5967622-13.001597h3.6194597q1.3606326 0 2.3833296.4090789 1.022698.409079 1.636316 1.218344.613619.8003719.791479 1.9920368.186753 1.1916648-.124502 2.7568366zm-1.760819.053358q.257898-1.298381.151182-2.2410413-.097823-.9515533-.542475-1.5651717-.435758-.6136185-1.191664-.9070882-.7559072-.3023627-1.7963907-.3023627h-1.7874973l-2.0365019 10.1647236h1.4406695q2.3477576 0 3.7973201-1.298381 1.4495623-1.298381 1.9653573-3.8506786z" fill="url(#a)" stroke="#000" stroke-opacity=".6"/></svg>

<?xml version="1.0" encoding="UTF-8" standalone="no"?>
<svg
   xmlns:dc="http://purl.org/dc/elements/1.1/"
   xmlns:cc="http://creativecommons.org/ns#"
   xmlns:rdf="http://www.w3.org/1999/02/22-rdf-syntax-ns#"
   xmlns:svg="http://www.w3.org/2000/svg"
   xmlns="http://www.w3.org/2000/svg"
   xmlns:xlink="http://www.w3.org/1999/xlink"
   xmlns:sodipodi="http://sodipodi.sourceforge.net/DTD/sodipodi-0.dtd"
   xmlns:inkscape="http://www.inkscape.org/namespaces/inkscape"
   viewBox="0 0 16 16"
   version="1.1"
   id="svg13"
   sodipodi:docname="sc_italic.svg"
   inkscape:version="0.92.4 (unknown)"
   inkscape:export-filename="/home/rizmut/Dokumen/Rizmut/Github/libreoffice-style-elementary/images_elementary/cmd/hu/sc_italic.png"
   inkscape:export-xdpi="96"
   inkscape:export-ydpi="96"><metadata
   id="metadata19">
  <rdf:RDF>
    <cc:Work
       rdf:about="">
      <dc:format>image/svg+xml</dc:format>
      <dc:type
         rdf:resource="http://purl.org/dc/dcmitype/StillImage" />
      <dc:title />
    </cc:Work>
  </rdf:RDF>
</metadata>
<defs
   id="defs17">
  <radialGradient
     inkscape:collect="always"
     xlink:href="#a"
     id="radialGradient857"
     cx="9"
     cy="3.7831736"
     fx="9"
     fy="3.7831736"
     r="3.6550317"
     gradientTransform="matrix(-2.183201,-0.15594313,0.2735958,-3.8303361,24.679608,16.394315)"
     gradientUnits="userSpaceOnUse" />
</defs>
<sodipodi:namedview
   pagecolor="#ffffff"
   bordercolor="#666666"
   borderopacity="1"
   objecttolerance="10"
   gridtolerance="10"
   guidetolerance="10"
   inkscape:pageopacity="0"
   inkscape:pageshadow="2"
   inkscape:window-width="1366"
   inkscape:window-height="714"
   id="namedview15"
   showgrid="true"
   inkscape:zoom="20.85965"
   inkscape:cx="4.1987533"
   inkscape:cy="5.9426314"
   inkscape:window-x="0"
   inkscape:window-y="28"
   inkscape:window-maximized="1"
   inkscape:current-layer="svg13">
  <inkscape:grid
     type="xygrid"
     id="grid826" />
</sodipodi:namedview>
<radialGradient
   id="a"
   cx="9.781"
   cy="3.505"
   gradientTransform="matrix(-2.59494 .15673 -.2 -3.09238 37.272 9.305)"
   gradientUnits="userSpaceOnUse"
   r="5.086">
  <stop
     offset="0"
     stop-color="#737373"
     id="stop2" />
  <stop
     offset=".262"
     stop-color="#636363"
     id="stop4" />
  <stop
     offset=".705"
     stop-color="#4b4b4b"
     id="stop6" />
  <stop
     offset="1"
     stop-color="#3f3f3f"
     id="stop8" />
</radialGradient>

/&amp;gt;<g
   aria-label="D"
   style="font-style:normal;font-weight:normal;font-size:40px;line-height:1.25;font-family:sans-serif;letter-spacing:0px;word-spacing:0px;fill:url(#radialGradient857);fill-opacity:1;stroke:#000000;stroke-opacity:0.6"
   id="text830">
  <path
     d="m 13.354155,7.8754973 q -0.329042,1.645209 -1.004912,2.8902317 -0.675869,1.23613 -1.654102,2.072074 -0.9693391,0.827051 -2.2321481,1.245023 -1.262809,0.417972 -2.7568366,0.417972 H 2.4513105 L 5.0480727,1.499201 h 3.6194597 q 1.3606326,0 2.3833296,0.4090789 1.022698,0.409079 1.636316,1.218344 0.613619,0.8003719 0.791479,1.9920368 0.186753,1.1916648 -0.124502,2.7568366 z m -1.760819,0.053358 Q 11.851234,6.6304743 11.744518,5.687814 11.646695,4.7362607 11.202043,4.1226423 10.766285,3.5090238 10.010379,3.2155541 9.2544718,2.9131914 8.2139883,2.9131914 H 6.426491 L 4.3899891,13.077915 h 1.4406695 q 2.3477576,0 3.7973201,-1.298381 1.4495623,-1.298381 1.9653573,-3.8506786 z"
     style="font-style:italic;font-variant:normal;font-weight:normal;font-stretch:normal;font-size:18.21290779px;font-family:'Droid Sans';-inkscape-font-specification:'Droid Sans';fill:url(#radialGradient857);fill-opacity:1;stroke:#000000;stroke-opacity:0.6"
     id="path820" />
</g>
</svg>
